Numix-GalliumOS/22/mimetypes/text-x-dsrc.svg

<?xml version="1.0" encoding="UTF-8" standalone="no"?>
<svg
   xmlns:dc="http://purl.org/dc/elements/1.1/"
   xmlns:cc="http://creativecommons.org/ns#"
   xmlns:rdf="http://www.w3.org/1999/02/22-rdf-syntax-ns#"
   xmlns:svg="http://www.w3.org/2000/svg"
   xmlns="http://www.w3.org/2000/svg"
   xmlns:sodipodi="http://sodipodi.sourceforge.net/DTD/sodipodi-0.dtd"
   xmlns:inkscape="http://www.inkscape.org/namespaces/inkscape"
   width="22"
   height="22"
   viewBox="0 0 22 22"
   id="svg2"
   version="1.1"
   inkscape:version="0.91 r13725"
   sodipodi:docname="text-x-dsrc2b.svg">
  <metadata
     id="metadata30">
    <rdf:RDF>
      <cc:Work
         rdf:about="">
        <dc:format>image/svg+xml</dc:format>
        <dc:type
           rdf:resource="http://purl.org/dc/dcmitype/StillImage" />
        <dc:title></dc:title>
      </cc:Work>
    </rdf:RDF>
  </metadata>
  <defs
     id="defs28" />
  <sodipodi:namedview
     pagecolor="#ffffff"
     bordercolor="#666666"
     borderopacity="1"
     objecttolerance="10"
     gridtolerance="10"
     guidetolerance="10"
     inkscape:pageopacity="0"
     inkscape:pageshadow="2"
     inkscape:window-width="1366"
     inkscape:window-height="713"
     id="namedview26"
     showgrid="true"
     inkscape:zoom="11.313708"
     inkscape:cx="9.0951705"
     inkscape:cy="9.6297283"
     inkscape:window-x="0"
     inkscape:window-y="28"
     inkscape:window-maximized="1"
     inkscape:current-layer="svg2">
    <inkscape:grid
       type="xygrid"
       id="grid3336" />
  </sodipodi:namedview>
  <path
     style="fill:#2d2d2d;fill-opacity:1"
     d="m 4,-4e-7 c -0.472657,0 -1,0.527344 -1,1 L 3,21 c 0,0.445312 0.554687,1 1,1 l 14,0 c 0.445313,0 0.992367,-0.554753 1,-1 l 0,-15.0000004 -6,-6 z"
     id="path4-5"
     inkscape:connector-curvature="0"
     sodipodi:nodetypes="ssssssccs" />
  <path
     style="fill:#000000;fill-opacity:0.19599998"
     d="M 14,5.9999996 19,11 19,5.9999996 z"
     id="path6"
     inkscape:connector-curvature="0"
     sodipodi:nodetypes="cccc" />
  <path
     style="fill:#ffffff;fill-opacity:0.39200003"
     d="m 13,-4e-7 6,6 -5,0 c -0.445312,0 -1,-0.554688 -1,-1 z"
     id="path8"
     inkscape:connector-curvature="0"
     sodipodi:nodetypes="ccssc" />
  <path
     d="m 15,13 c 0,3.554304 -2.265166,5 -4.000001,5 L 7,18 7,8 10.999999,8 C 12.734834,8 15,9.4456961 15,13 Z m -2,0 c 0,-2 -1.000001,-2.999999 -2.666667,-2.999999 L 9,10.000001 9,16 10.333333,16 C 11.999999,16 13,15 13,13 Z"
     style="font-style:normal;font-variant:normal;font-weight:bold;font-stretch:normal;font-size:12.30313683px;line-height:125%;font-family:'Open Sans';-inkscape-font-specification:'Open Sans Bold';letter-spacing:0px;word-spacing:0px;fill:#dcdcdc;fill-opacity:1;stroke:none;stroke-width:1px;stroke-linecap:butt;stroke-linejoin:miter;stroke-opacity:1"
     id="path4161"
     inkscape:connector-curvature="0"
     sodipodi:nodetypes="zcccczzsccsz" />
</svg>

<svg xmlns="http://www.w3.org/2000/svg" viewBox="0 0 22 22">
 <path d="m 4 0 c -0.473 0 -1 0.527 -1 1 l 0 20 c 0 0.445 0.555 1 1 1 l 14 0 c 0.445 0 0.992 -0.555 1 -1 l 0 -15 -6 -6 z" style="fill:#2d2d2d;fill-opacity:1"/>
 <path d="m 14 6 5 5 0 -5 z" style="fill:#000;fill-opacity:0.196"/>
 <path d="m 13 0 6 6 -5 0 c -0.445 0 -1 -0.555 -1 -1 z" style="fill:#fff;fill-opacity:0.392"/>
 <path d="m 15 13 c 0 3.554 -2.265 5 -4 5 l -4 0 0 -10 4 0 c 1.735 0 4 1.446 4 5 m -2 0 c 0 -2 -1 -3 -2.667 -3 l -1.333 0 0 6 1.333 0 c 1.667 0 2.667 -1 2.667 -3" style="fill:#dcdcdc;fill-opacity:1;stroke:none"/>
</svg>
